assets/Trolleybus/Flat/trolleybus_flat.svg

<svg width="32" height="32" viewBox="0 0 32 32" fill="none" xmlns="http://www.w3.org/2000/svg">
<path d="M30 25C30 26.1046 29.1046 27 28 27L4 27C2.89543 27 2 26.1046 2 25L2 20.9L16 19.9L30 20.9L30 25Z" fill="#00F397"/>
<path fill-rule="evenodd" clip-rule="evenodd" d="M8.5 30C10.433 30 12 28.433 12 26.5C12 24.567 10.433 23 8.5 23C6.567 23 5 24.567 5 26.5C5 28.433 6.567 30 8.5 30ZM23.5 30C25.433 30 27 28.433 27 26.5C27 24.567 25.433 23 23.5 23C21.567 23 20 24.567 20 26.5C20 28.433 21.567 30 23.5 30Z" fill="#212121"/>
<path d="M8.5 28C9.32843 28 10 27.3284 10 26.5C10 25.6716 9.32843 25 8.5 25C7.67157 25 7 25.6716 7 26.5C7 27.3284 7.67157 28 8.5 28Z" fill="white"/>
<path d="M23.5 28C24.3284 28 25 27.3284 25 26.5C25 25.6716 24.3284 25 23.5 25C22.6716 25 22 25.6716 22 26.5C22 27.3284 22.6716 28 23.5 28Z" fill="white"/>
<path d="M28 23C28 22.4477 28.4477 22 29 22H30V24H29C28.4477 24 28 23.5523 28 23V23Z" fill="#F8312F"/>
<path d="M2 22V22C2.55228 22 3 22.4477 3 23V24C3 24.5523 2.55228 25 2 25V25V22Z" fill="#FFB02E"/>
<path d="M16.5429 6.54289C17.4332 5.65255 18.6748 5 20 5C20.5523 5 21 5.44772 21 6C21 6.55228 20.5523 7 20 7C19.3252 7 18.5668 7.34745 17.9571 7.95711C17.639 8.27523 17.3923 8.63387 17.229 9H19C19.5523 9 20 9.44772 20 10V11H27C28.6569 11 30 12.3431 30 14V21H2V14C2 12.3431 3.34315 11 5 11H13V10C13 9.44772 13.4477 9 14 9H15H15.1221C15.3509 8.0602 15.8812 7.20457 16.5429 6.54289Z" fill="#F4F4F4"/>
<path d="M2 19H30V21H2V19Z" fill="#5092FF"/>
<path d="M10 13C9.44772 13 9 13.4477 9 14V17C9 17.5523 9.44772 18 10 18H13C13.5523 18 14 17.5523 14 17V14C14 13.4477 13.5523 13 13 13H10Z" fill="#00A6ED"/>
<path d="M17 13C16.4477 13 16 13.4477 16 14V17C16 17.5523 16.4477 18 17 18H20C20.5523 18 21 17.5523 21 17V14C21 13.4477 20.5523 13 20 13H17Z" fill="#00A6ED"/>
<path d="M23 14C23 13.4477 23.4477 13 24 13H27C27.5523 13 28 13.4477 28 14V17C28 17.5523 27.5523 18 27 18H24C23.4477 18 23 17.5523 23 17V14Z" fill="#00A6ED"/>
<path d="M2 18.0029V14C2 13.6542 2.05851 13.322 2.16618 13.0129H5.92C6.53 13.0129 7.02 13.5029 7.02 14.1129V16.9029C7.02 17.5129 6.53 18.0029 5.92 18.0029H2Z" fill="#00A6ED"/>
</svg>

<svg xmlns="http://www.w3.org/2000/svg" width="32" height="32" fill="none"><path fill="#00F397" d="M30 25a2 2 0 0 1-2 2H4a2 2 0 0 1-2-2v-4.1l14-1 14 1V25Z"/><path fill="#212121" fill-rule="evenodd" d="M8.5 30a3.5 3.5 0 1 0 0-7 3.5 3.5 0 0 0 0 7Zm15 0a3.5 3.5 0 1 0 0-7 3.5 3.5 0 0 0 0 7Z" clip-rule="evenodd"/><path fill="#fff" d="M8.5 28a1.5 1.5 0 1 0 0-3 1.5 1.5 0 0 0 0 3ZM23.5 28a1.5 1.5 0 1 0 0-3 1.5 1.5 0 0 0 0 3Z"/><path fill="#F8312F" d="M28 23a1 1 0 0 1 1-1h1v2h-1a1 1 0 0 1-1-1Z"/><path fill="#FFB02E" d="M2 22a1 1 0 0 1 1 1v1a1 1 0 0 1-1 1v-3Z"/><path fill="#F4F4F4" d="M16.543 6.543C17.433 5.653 18.675 5 20 5a1 1 0 1 1 0 2c-.675 0-1.433.347-2.043.957A3.518 3.518 0 0 0 17.23 9H19a1 1 0 0 1 1 1v1h7a3 3 0 0 1 3 3v7H2v-7a3 3 0 0 1 3-3h8v-1a1 1 0 0 1 1-1H15.122c.229-.94.76-1.795 1.42-2.457Z"/><path fill="#5092FF" d="M2 19h28v2H2v-2Z"/><path fill="#00A6ED" d="M10 13a1 1 0 0 0-1 1v3a1 1 0 0 0 1 1h3a1 1 0 0 0 1-1v-3a1 1 0 0 0-1-1h-3ZM17 13a1 1 0 0 0-1 1v3a1 1 0 0 0 1 1h3a1 1 0 0 0 1-1v-3a1 1 0 0 0-1-1h-3ZM23 14a1 1 0 0 1 1-1h3a1 1 0 0 1 1 1v3a1 1 0 0 1-1 1h-3a1 1 0 0 1-1-1v-3ZM2 18.003V14c0-.346.059-.678.166-.987H5.92c.61 0 1.1.49 1.1 1.1v2.79c0 .61-.49 1.1-1.1 1.1H2Z"/></svg>
